X: 3a
T: Sliabh Russell 
M:6/8
R:jig
K:Ador
"Am"eAA "G"Bcd|"Am"eaf "G"ged|"(Em)"edB "Am"cBA|"G"BAG Bcd|
"Am"eAA "G"Bcd|"Am"eaf "G"ged|"(Em)"edB "Am"cBA|"G"BAG "Am"A2d:|
|:"Am"eaa "C"efg|"D"agf "G"ged|"Am"eaa "C"efg|"D"fed "G"~g3|
"Am"eaa "C"efg|"D"agf "G"ged|"(Em)"edB "Am"cBA|"G"BAG "Am"ABd:|


